svg/u1f967.svg

<svg viewBox="0 0 128 128" xmlns="http://www.w3.org/2000/svg">
  <path d="M68.86,99.8L9.95,88.64c0,0,3.56,14.74,4.78,16.73c1.22,1.99,8.69,7.43,15.86,9.98 s61.98,0.9,66.61-0.86c4.62-1.75,12.96-5.53,14.75-7.85c1.52-1.97,5.9-18.97,5.9-18.97L68.86,99.8z" fill="#878787"/>
  <path d="M16.45,96.14l4.09,14.15c0,0,2.93,2.09,7.11,3.98c4.24,1.92,9.9,3.39,9.9,3.39s6.41-10.22,6.3-10.92 s-8.16-2.85-8.16-2.85s-6.54-1.81-10.16-3.21C21.92,99.29,16.45,96.14,16.45,96.14z" fill="#E0E0E0"/>
  <path d="M96.45,103.05c0,0,4.61-1.43,7.02-2.34c2.8-1.06,6.11-2.8,6.11-2.8l-3.42,12.6 c0,0-2.79,1.58-5.35,2.7c-3.33,1.46-6.54,2.46-6.54,2.46l-2.44-5.83L96.45,103.05z" fill="#ABABAB"/>
  <path d="M37.53,117.66c0,0,13.08,3.04,28.73,2.57c14.36-0.43,28.03-4.55,28.03-4.55l2.23-12.65 c0,0-8.88,3.41-33.64,3.99c-14.95,0.35-27.18-3.13-27.18-3.13L37.53,117.66z" fill="#C8C8C8"/>
  <radialGradient id="SVGID_1_" cx="65.7269" cy="51.9052" gradientTransform="matrix(1.028679e-13 1 -2.179 2.241511e-13 178.8293 -13.8216)" gradientUnits="userSpaceOnUse" r="43.314">
    <stop offset="0.3855" stop-color="#FAC470"/>
    <stop offset="0.7673" stop-color="#ED9C2C"/>
  </radialGradient>
  <path d="M8.68,72.58c0,1.17,1.28,10.98,1.28,10.98s2.92,4.09,4.44,4.91 c1.52,0.82,23.71,8.18,24.64,8.41s34.45,1.52,36.91,1.52s29.2-6.31,29.2-6.31l15.17-7.37c0,0,0.73-6.52,0.73-7.1 s-1.71-8.07-2.34-8.64c-0.89-0.81-5.62-3.05-5.62-3.05s-2.43-2.94-6.73-5.43c-4.42-2.55-16.24-7.47-23.36-9.22 c-7.12-1.75-28.77-2.76-40.68,0.16c-11.91,2.92-20.09,6.07-23.83,10.04s-5.14,6.54-5.14,6.54L8.68,72.58z" fill="url(#SVGID_1_)"/>
  <path d="M53.91,53.25c0.22,0.98-1.97,0.8-6.83,3.03c-3.69,1.69-7.83,6.2-8.96,3.63 c-1.2-2.71,2.73-5.2,8.04-6.41C50.04,52.61,53.73,52.45,53.91,53.25z" fill="#CE701D"/>
  <path d="M58.84,57.5c-0.81-0.37-2.83,1.97-4.75,5.05c-1.92,3.08-4.45,7.16-1.82,8.09 c3.08,1.09,3.94-4.06,4.58-6.02C58.09,60.82,59.51,57.8,58.84,57.5z" fill="#CE701D"/>
  <path d="M69.05,56.94c-0.59,0.29,0.33,2.66,1.35,5.6s1.98,8.03,5.13,6.93c3.15-1.09-1.27-7.04-2.12-8.21 C72.19,59.59,69.79,56.57,69.05,56.94z" fill="#CE701D"/>
  <path d="M74.26,53.88c-0.04,1.09,4.29,2.07,8.52,4.29c3.39,1.79,7.36,4.31,8.11,2.21 c0.75-2.12-1.19-3.13-6.39-4.98C79.31,53.55,74.31,52.8,74.26,53.88z" fill="#CE701D"/>
  <path d="M70.99,7.79c-1.38,0.79,0.09,4.17-1.36,7.24s-4.94,5.62-7.84,7.58 c-2.9,1.96-11.54,7.08-10.73,16.36c0.69,7.94,4.04,11.97,7.1,15.04c2.76,2.76,6.53,5.49,8.23,5.32s-0.09-6.39,2.9-10.82 c2.98-4.43,8.18-8.01,11.84-10.99c3.66-2.98,7.67-10.22,3.07-17.8C79.59,12.13,72.18,7.11,70.99,7.79z" opacity="0.6" fill="#EAEAEA"/>
  <path d="M79.1,94.4c0,0,3.71-3.88,9.57-3.96c5.86-0.09,8.19,1.64,8.19,1.64s2.5-4.38,6.91-5.54 c5.15-1.35,8.25,1.06,8.51,0.63c0.26-0.43,1.25-5.84,2.99-8.34c2.01-2.87,3.69-2.82,3.69-2.82s-0.43-3.04-2.33-5.8 c-1.6-2.33-3.52-4.28-3.52-4.28s4.23-0.7,7.32,2.93c2.25,2.64,1.77,7.45,1.77,7.45s3.02,1.9,1.21,6.46s-5.39,7.91-10.94,11.37 c-3.9,2.44-18.91,8.51-33.8,9.46c-15.57,0.99-33.55,1.52-50.85-4.85C15.38,94.18,5.3,87.12,3.95,80.22 c-1.36-6.9,3.69-10.28,5.26-11.23c1.57-0.95,4.15-0.96,4.15-0.96s-1.24,1.75-1.8,3.42c-0.56,1.68-0.79,3.15-0.79,3.15 s2.02,2.44,2.52,4.07c0.5,1.62,0.56,5.53,0.56,5.53s2.4-2.55,6.27-0.98c5.2,2.11,11,9.53,11,9.53s1.73-3.35,8.22-2.85 s15.32,6.93,15.32,6.93s5.29-5.49,13.44-5.33C75.53,91.65,79.1,94.4,79.1,94.4z" fill="#E08013"/>
  <path d="M119.56,78.24c-0.88-0.57-2.21,0.58-3.13,1.99c-1.2,1.82-1.51,4.14-0.8,4.44 c1.08,0.46,2.17-1.99,3.25-3.36C119.6,80.4,120.7,78.98,119.56,78.24z" fill="#EC9C2A"/>
  <path d="M107.2,88.87c0.64,1.05-1.56,1.93-2.42,3.07c-0.85,1.14-0.76,2.8-1.54,2.96 c-1.71,0.36-3.31-2.28-3.19-3.25s2.51-2.56,3.36-2.85S106.58,87.84,107.2,88.87z" fill="#EC9C2A"/>
  <path d="M89.47,93.13c0.35,0.84-2.39,3.25-3.42,4.39c-1.03,1.14-2.19,3.37-3.42,3.19 c-1.54-0.23-1.95-3.18-1.21-4.89c0.74-1.71,2.09-3.24,4.12-3.6C87.13,91.93,89.07,92.16,89.47,93.13z" fill="#EC9C2A"/>
  <path d="M57.5,102.3c1.89,1.75,4.8-2.23,5.58-3.25c2.34-3.02,4.97-3.86,5.01-4.84 c0.06-1.31-4.05-1.42-6.95,0.17C58.53,95.82,55.22,100.19,57.5,102.3z" fill="#EC9C2A"/>
  <path d="M40.08,92.6c-0.05,1.16-1.88,1.65-3.19,3.25c-0.97,1.18-2.05,4.44-4.27,3.36 c-2.22-1.08-1.23-4.36,0.34-5.93C35.12,91.12,40.13,91.17,40.08,92.6z" fill="#EC9C2A"/>
  <path d="M15.56,91.02c1.2,0.68,1.31-2.19,2.28-3.33c0.97-1.14,2.4-1.23,2.34-2.6 c-0.06-1.37-3.18-1.69-4.5-0.8C13.39,85.83,13.96,90.11,15.56,91.02z" fill="#EC9C2A"/>
  <path d="M7.75,83.16c1.54,0.28,0.97-2.62,1.77-3.82c0.8-1.2,1.99-1.65,1.2-3.08c-0.8-1.42-3.65-1.14-4.5,1.25 C5.59,79.26,5.47,82.73,7.75,83.16z" fill="#EC9C2A"/>
</svg>

<svg viewBox="0 0 128 128" xmlns="http://www.w3.org/2000/svg">
  <defs>
    <radialGradient id="SVGID_1_" cx="51.9053" cy="-30.164236" gradientTransform="matrix(0 1 -2.179 0 0 0)" gradientUnits="userSpaceOnUse" r="43.314">
      <stop offset="0.3855" stop-color="#FAC470"/>
      <stop offset="0.7673" stop-color="#ED9C2C"/>
    </radialGradient>
  </defs>
  <path d="M68.86,99.8 L9.95,88.64 C9.95,88.64 13.51,103.38 14.73,105.37 C15.95,107.36 23.42,112.8 30.59,115.35 C37.76,117.9 92.57,116.25 97.2,114.49 C101.82,112.74 110.16,108.96 111.95,106.64 C113.47,104.67 117.85,87.67 117.85,87.67 L68.86,99.8 Z" fill="#878787"/>
  <path d="M16.45,96.14 L20.54,110.29 C20.54,110.29 23.47,112.38 27.65,114.27 C31.89,116.19 37.55,117.66 37.55,117.66 C37.55,117.66 43.96,107.44 43.85,106.74 C43.74,106.04 35.69,103.89 35.69,103.89 C35.69,103.89 29.15,102.08 25.53,100.68 C21.92,99.29 16.45,96.14 16.45,96.14 Z" fill="#E0E0E0"/>
  <path d="M96.45,103.05 C96.45,103.05 101.06,101.62 103.47,100.71 C106.27,99.65 109.58,97.91 109.58,97.91 L106.16,110.51 C106.16,110.51 103.37,112.09 100.81,113.21 C97.48,114.67 94.27,115.67 94.27,115.67 L91.83,109.84 L96.45,103.05 Z" fill="#ABABAB"/>
  <path d="M37.53,117.66 C37.53,117.66 50.61,120.7 66.26,120.23 C80.62,119.8 94.29,115.68 94.29,115.68 L96.52,103.03 C96.52,103.03 87.64,106.44 62.88,107.02 C47.93,107.37 35.7,103.89 35.7,103.89 L37.53,117.66 Z" fill="#C8C8C8"/>
  <path d="M8.68,72.58 C8.68,73.75 9.96,83.56 9.96,83.56 C9.96,83.56 12.88,87.65 14.4,88.47 C15.92,89.29 38.11,96.65 39.04,96.88 C39.97,97.11 73.49,98.4 75.95,98.4 C78.41,98.4 105.15,92.09 105.15,92.09 L120.32,84.72 C120.32,84.72 121.05,78.2 121.05,77.62 C121.05,77.04 119.34,69.55 118.71,68.98 C117.82,68.17 113.09,65.93 113.09,65.93 C113.09,65.93 110.66,62.99 106.36,60.5 C101.94,57.95 90.12,53.03 83,51.28 C75.88,49.53 54.23,48.52 42.32,51.44 C30.41,54.36 22.23,57.51 18.49,61.48 C14.75,65.45 13.35,68.02 13.35,68.02 L8.68,72.58 Z" fill="url(#SVGID_1_)"/>
  <path d="M53.91,53.25 C54.13,54.23 51.94,54.05 47.08,56.28 C43.39,57.97 39.25,62.48 38.12,59.91 C36.92,57.2 40.85,54.71 46.16,53.5 C50.04,52.61 53.73,52.45 53.91,53.25 Z" fill="#CE701D"/>
  <path d="M58.84,57.5 C58.03,57.13 56.01,59.47 54.09,62.55 C52.17,65.63 49.64,69.71 52.27,70.64 C55.35,71.73 56.21,66.58 56.85,64.62 C58.09,60.82 59.51,57.8 58.84,57.5 Z" fill="#CE701D"/>
  <path d="M69.05,56.94 C68.46,57.23 69.38,59.6 70.4,62.54 C71.42,65.48 72.38,70.57 75.53,69.47 C78.68,68.38 74.26,62.43 73.41,61.26 C72.19,59.59 69.79,56.57 69.05,56.94 Z" fill="#CE701D"/>
  <path d="M74.26,53.88 C74.22,54.97 78.55,55.95 82.78,58.17 C86.17,59.96 90.14,62.48 90.89,60.38 C91.64,58.26 89.7,57.25 84.5,55.4 C79.31,53.55 74.31,52.8 74.26,53.88 Z" fill="#CE701D"/>
  <path d="M70.99,7.79 C69.61,8.58 71.08,11.96 69.63,15.03 C68.18,18.1 64.69,20.65 61.79,22.61 C58.89,24.57 50.25,29.69 51.06,38.97 C51.75,46.91 55.1,50.94 58.16,54.01 C60.92,56.77 64.69,59.5 66.39,59.33 C68.09,59.16 66.3,52.94 69.29,48.51 C72.27,44.08 77.47,40.5 81.13,37.52 C84.79,34.54 88.8,27.3 84.2,19.72 C79.59,12.13 72.18,7.11 70.99,7.79 Z" fill="#EAEAEA" opacity="0.6"/>
  <path d="M79.1,94.4 C79.1,94.4 82.81,90.52 88.67,90.44 C94.53,90.35 96.86,92.08 96.86,92.08 C96.86,92.08 99.36,87.7 103.77,86.54 C108.92,85.19 112.02,87.6 112.28,87.17 C112.54,86.74 113.53,81.33 115.27,78.83 C117.28,75.96 118.96,76.01 118.96,76.01 C118.96,76.01 118.53,72.97 116.63,70.21 C115.03,67.88 113.11,65.93 113.11,65.93 C113.11,65.93 117.34,65.23 120.43,68.86 C122.68,71.5 122.2,76.31 122.2,76.31 C122.2,76.31 125.22,78.21 123.41,82.77 C121.6,87.33 118.02,90.68 112.47,94.14 C108.57,96.58 93.56,102.65 78.67,103.6 C63.1,104.59 45.12,105.12 27.82,98.75 C15.38,94.18 5.3,87.12 3.95,80.22 C2.59,73.32 7.64,69.94 9.21,68.99 C10.78,68.04 13.36,68.03 13.36,68.03 C13.36,68.03 12.12,69.78 11.56,71.45 C11,73.13 10.77,74.6 10.77,74.6 C10.77,74.6 12.79,77.04 13.29,78.67 C13.79,80.29 13.85,84.2 13.85,84.2 C13.85,84.2 16.25,81.65 20.12,83.22 C25.32,85.33 31.12,92.75 31.12,92.75 C31.12,92.75 32.85,89.4 39.34,89.9 C45.83,90.4 54.66,96.83 54.66,96.83 C54.66,96.83 59.95,91.34 68.1,91.5 C75.53,91.65 79.1,94.4 79.1,94.4 Z" fill="#E08013"/>
  <path d="M119.56,78.24 C118.68,77.67 117.35,78.82 116.43,80.23 C115.23,82.05 114.92,84.37 115.63,84.67 C116.71,85.13 117.8,82.68 118.88,81.31 C119.6,80.4 120.7,78.98 119.56,78.24 Z" fill="#EC9C2A"/>
  <path d="M107.2,88.87 C107.84,89.92 105.64,90.8 104.78,91.94 C103.93,93.08 104.02,94.74 103.24,94.9 C101.53,95.26 99.93,92.62 100.05,91.65 C100.17,90.68 102.56,89.09 103.41,88.8 C104.26,88.51 106.58,87.84 107.2,88.87 Z" fill="#EC9C2A"/>
  <path d="M89.47,93.13 C89.82,93.97 87.08,96.38 86.05,97.52 C85.02,98.66 83.86,100.89 82.63,100.71 C81.09,100.48 80.68,97.53 81.42,95.82 C82.16,94.11 83.51,92.58 85.54,92.22 C87.13,91.93 89.07,92.16 89.47,93.13 Z" fill="#EC9C2A"/>
  <path d="M57.5,102.3 C59.39,104.05 62.3,100.07 63.08,99.05 C65.42,96.03 68.05,95.19 68.09,94.21 C68.15,92.9 64.04,92.79 61.14,94.38 C58.53,95.82 55.22,100.19 57.5,102.3 Z" fill="#EC9C2A"/>
  <path d="M40.08,92.6 C40.03,93.76 38.2,94.25 36.89,95.85 C35.92,97.03 34.84,100.29 32.62,99.21 C30.4,98.13 31.39,94.85 32.96,93.28 C35.12,91.12 40.13,91.17 40.08,92.6 Z" fill="#EC9C2A"/>
  <path d="M15.56,91.02 C16.76,91.7 16.87,88.83 17.84,87.69 C18.81,86.55 20.24,86.46 20.18,85.09 C20.12,83.72 17,83.4 15.68,84.29 C13.39,85.83 13.96,90.11 15.56,91.02 Z" fill="#EC9C2A"/>
  <path d="M7.75,83.16 C9.29,83.44 8.72,80.54 9.52,79.34 C10.32,78.14 11.51,77.69 10.72,76.26 C9.92,74.84 7.07,75.12 6.22,77.51 C5.59,79.26 5.47,82.73 7.75,83.16 Z" fill="#EC9C2A"/>
</svg>
